X:3013
T:Polska efter Troskari Erik Persson
B:EÖ, nr 339
S:efter Troskari Erik Persson
R:Polska
O:Västra Fors, Malungs sn, Dalarna
Z:Nils L
L:1/8
M:3/4
U:t=tenuto
K:Am
G>c e2 c>e | f2 d>B G2- | tG2 g>a g>f | d>f e4 |
G>c e2 c>e | f2 d>B G2- | tG2 g2 TB>A | B>d [E4c4] ::
c>d c>B A>^G | Ac e4- | te2 c>B A>B | c>B A2 E2- |
tE2 cB A>^G | A>c e2 a2 | f>a Pg2 PB>A | B>d [cE]4 :|
(:musicend:)
(:music:)
